src/img/channel/channel_86.svg

<svg fill="none" height="58" viewBox="0 0 160 58" width="160" xmlns="http://www.w3.org/2000/svg"><path d="m55.8868 57.6564c-.4134-1.7052-7.3536-35.2373-7.3035-35.2877.0649-.0653 8.9728-1.1153 9.0053-1.0614.0905.1501 2.6347 16.1939 3.3551 21.1574.3704 2.5524.6963 4.6637.7241 4.6917.0695.0699.0942-.0245.9292-3.5581 1.233-5.2172 4.3464-16.999 5.6992-21.5665.0635-.2144.3591-.2326 3.7619-.2326h3.6931l.1229.3252c.206.5452 3.7622 13.1149 4.5524 16.0906.4076 1.5352 1.0814 4.1807 1.4972 5.8788s.787 3.0888.825 3.0905c.0379.0016.2054-1.0588.3721-2.3564.7386-5.7476 3.3449-23.3621 3.4758-23.4909.0616-.0606 7.6362.9442 7.7149 1.0234.0339.0341-1.5291 8.0572-3.4734 17.8291l-3.535 17.7671-5.0135-.0346-5.0135-.0346-.5072-1.728c-2.0646-7.0337-4.0363-14.2939-4.9275-18.1438-.1946-.8407-.394-1.5728-.4431-1.6269-.0491-.054-.3753 1.2021-.7249 2.7914-.6071 2.7605-3.275 13.5446-4.217 17.0458l-.447 1.6615-5.0249.0348-5.0248.0348zm40.4649-17.7799v-18.0773h4.4253 4.425v18.0773 18.0774h-4.425-4.4253zm12.9453 0v-18.0773h4.491 4.492v14.7543 14.7543h5.482 5.482v3.323 3.3231h-9.974-9.973zm22.721.0075v-18.0848h6.335c6.701 0 8.252.0904 10.243.5972 2.751.7004 4.736 1.7661 6.606 3.548 2.523 2.4032 4.027 5.5581 4.635 9.7289.266 1.8178.195 6.175-.127 7.8999-.8 4.2777-2.174 7.1379-4.642 9.6664-2.274 2.3297-4.565 3.5897-7.991 4.395-.862.2025-1.908.2395-8.025.2835l-7.034.0507zm13.493 10.9981c1.632-.6113 2.854-1.7735 3.738-3.5558.889-1.7895 1.316-3.5738 1.55-6.4695.375-4.6426-.691-8.3762-3.014-10.5599-1.446-1.3596-2.51-1.7187-5.092-1.7187h-1.825v11.2762c0 6.2019.045 11.3225.099 11.3791.055.0567.902.0747 1.883.0402 1.47-.0518 1.937-.1206 2.661-.3916zm-43.294-33.0624c-1.94-.3087-3.3868-1.1696-4.6718-2.7806-1.1171-1.4008-1.6975-3.1087-1.8151-5.34191-.1519-2.88605.7348-5.35709 2.5532-7.11525 2.1847-2.112504 5.7267-2.6681573 8.3807-1.31489.365.18635.693.41399.728.50585.035.09187-.116.565-.335 1.05139l-.399.88436-.723-.32212c-2.574-1.14546-5.306-.26621-6.4924 2.08967-.5314 1.05536-.7188 1.79591-.8033 3.17538-.1759 2.87212.927 5.30852 2.8867 6.37792.771.4202.924.4553 1.959.449.617-.0038 1.286-.0771 1.486-.1629l.363-.1559v-2.5953-2.59527h1.387 1.387v3.45417 3.4542l-.495.2098c-1.395.5904-4.035.9489-5.396.7324zm23.889-.0768c-2.414-.5279-4.358-2.6894-5.137-5.7135-.337-1.3096-.342-4.56415-.009-5.78208.777-2.8391 2.796-5.03363 5.128-5.574663.743-.172412 2.133-.172412 2.877 0 1.633.378973 3.467 1.867483 4.329 3.514383.837 1.60046 1.036 2.54977 1.03 4.9181-.006 2.43916-.158 3.19166-1.001 4.95676-.927 1.9436-2.539 3.2818-4.439 3.6869-1.087.2318-1.696.2305-2.778-.0059zm3.062-2.6435c1.465-.8642 2.321-3.1134 2.321-6.10032 0-3.65558-1.553-6.09663-3.892-6.11866-1.913-.01801-3.298 1.42308-3.84 3.99615-.631 2.99698.261 6.91633 1.829 8.04003 1.03.7379 2.512.8135 3.582.1828zm-77.8611-6.2601v-8.8393l1.0898.00506651 1.0898.00507059.5192.7592299c1.7344 2.535773 6.2208 9.337133 6.8795 10.429333.4299.7128.8284 1.2959.8855 1.2959s.1039-2.81125.1039-6.24728v-6.24732h1.1228 1.1228v8.8393 8.8393h-1.0335-1.0335l-2.4934-3.6793c-1.3714-2.0236-3.2394-4.86856-4.1513-6.32208l-1.6578-2.64276-.0343 6.32204-.0344 6.3221h-1.1875-1.1876zm14.1342 8.7396c-.0001-.0548 1.3159-4.0325 2.9244-8.8393l2.9245-8.7396 1.2036.00170777 1.2036.0017037 2.4323 7.87390853c1.3377 4.33068 2.5666 8.30758 2.7307 8.83758l.2985.9637h-1.6215-1.6215l-.6335-2.2929c-.3484-1.2611-.6924-2.3689-.7645-2.4619-.0996-.1284-.7335-.1603-2.6448-.1329l-2.5138.036-.7371 2.4242-.7371 2.4241-1.2218.0017c-.6721.0009-1.222-.0432-1.222-.098zm8.6091-6.8795c.058-.0584-1.6161-6.44211-1.8299-6.97759-.0503-.126-.1273-.0037-.2091.3323-.0712.29243-.5086 1.87196-.972 3.51006s-.8426 3.02883-.8426 3.09043c0 .1177 3.738.1612 3.8536.0448zm8.1672-.6638v-7.64301h-2.2457-2.2456v-1.19629-1.1963h5.9443 5.9444v1.1963 1.19629h-2.2457-2.2456v7.64301 7.643h-1.4531-1.453zm28.9286-.79754v-8.44053h3.699 3.699v1.12984 1.12983h-2.312-2.312v2.32613 2.32613h2.246 2.246v1.06338 1.06337h-2.246-2.246v2.79139 2.7913h2.708 2.708v1.1299 1.1298h-4.095-4.095z" fill="#707173"/><path d="m0 .0634766v57.8126234h40.0705v-57.8126234zm5.81223 5.8485534h28.44607v46.11557c-9.482 0-18.964 0-28.44607 0 0-15.3719 0-30.7437 0-46.11557z" fill="#fc0"/></svg>

<svg width="160" height="58" viewBox="0 0 160 58" fill="none" xmlns="http://www.w3.org/2000/svg">
<path d="M55.8868 57.6564C55.4734 55.9512 48.5332 22.4191 48.5833 22.3687C48.6482 22.3034 57.5561 21.2534 57.5886 21.3073C57.6791 21.4574 60.2233 37.5012 60.9437 42.4647C61.3141 45.0171 61.64 47.1284 61.6678 47.1564C61.7373 47.2263 61.762 47.1319 62.597 43.5983C63.83 38.3811 66.9434 26.5993 68.2962 22.0318C68.3597 21.8174 68.6553 21.7992 72.0581 21.7992H75.7512L75.8741 22.1244C76.0801 22.6696 79.6363 35.2393 80.4265 38.215C80.8341 39.7502 81.5079 42.3957 81.9237 44.0938C82.3395 45.7919 82.7107 47.1826 82.7487 47.1843C82.7866 47.1859 82.9541 46.1255 83.1208 44.8279C83.8594 39.0803 86.4657 21.4658 86.5966 21.337C86.6582 21.2764 94.2328 22.2812 94.3115 22.3604C94.3454 22.3945 92.7824 30.4176 90.8381 40.1895L87.3031 57.9566L82.2896 57.922L77.2761 57.8874L76.7689 56.1594C74.7043 49.1257 72.7326 41.8655 71.8414 38.0156C71.6468 37.1749 71.4474 36.4428 71.3983 36.3887C71.3492 36.3347 71.023 37.5908 70.6734 39.1801C70.0663 41.9406 67.3984 52.7247 66.4564 56.2259L66.0094 57.8874L60.9845 57.9222L55.9597 57.957L55.8868 57.6564ZM96.3517 39.8765V21.7992H100.777H105.202V39.8765V57.9539H100.777H96.3517V39.8765ZM109.297 39.8765V21.7992H113.788H118.28V36.5535V51.3078H123.762H129.244V54.6308V57.9539H119.27H109.297V39.8765ZM132.018 39.884V21.7992H138.353C145.054 21.7992 146.605 21.8896 148.596 22.3964C151.347 23.0968 153.332 24.1625 155.202 25.9444C157.725 28.3476 159.229 31.5025 159.837 35.6733C160.103 37.4911 160.032 41.8483 159.71 43.5732C158.91 47.8509 157.536 50.7111 155.068 53.2396C152.794 55.5693 150.503 56.8293 147.077 57.6346C146.215 57.8371 145.169 57.8741 139.052 57.9181L132.018 57.9688V39.884ZM145.511 50.8821C147.143 50.2708 148.365 49.1086 149.249 47.3263C150.138 45.5368 150.565 43.7525 150.799 40.8568C151.174 36.2142 150.108 32.4806 147.785 30.2969C146.339 28.9373 145.275 28.5782 142.693 28.5782H140.868V39.8544C140.868 46.0563 140.913 51.1769 140.967 51.2335C141.022 51.2902 141.869 51.3082 142.85 51.2737C144.32 51.2219 144.787 51.1531 145.511 50.8821ZM102.217 17.8197C100.277 17.511 98.8302 16.6501 97.5452 15.0391C96.4281 13.6383 95.8477 11.9304 95.7301 9.69719C95.5782 6.81114 96.4649 4.3401 98.2833 2.58194C100.468 0.469436 104.01 -0.0862173 106.664 1.26705C107.029 1.4534 107.357 1.68104 107.392 1.7729C107.427 1.86477 107.276 2.3379 107.057 2.82429L106.658 3.70865L105.935 3.38653C103.361 2.24107 100.629 3.12032 99.4426 5.4762C98.9112 6.53156 98.7238 7.27211 98.6393 8.65158C98.4634 11.5237 99.5663 13.9601 101.526 15.0295C102.297 15.4497 102.45 15.4848 103.485 15.4785C104.102 15.4747 104.771 15.4014 104.971 15.3156L105.334 15.1597V12.5644V9.96913H106.721H108.108V13.4233V16.8775L107.613 17.0873C106.218 17.6777 103.578 18.0362 102.217 17.8197ZM126.106 17.7429C123.692 17.215 121.748 15.0535 120.969 12.0294C120.632 10.7198 120.627 7.46525 120.96 6.24732C121.737 3.40822 123.756 1.21369 126.088 0.672657C126.831 0.500245 128.221 0.500245 128.965 0.672657C130.598 1.05163 132.432 2.54014 133.294 4.18704C134.131 5.7875 134.33 6.73681 134.324 9.10514C134.318 11.5443 134.166 12.2968 133.323 14.0619C132.396 16.0055 130.784 17.3437 128.884 17.7488C127.797 17.9806 127.188 17.9793 126.106 17.7429ZM129.168 15.0994C130.633 14.2352 131.489 11.986 131.489 8.99908C131.489 5.3435 129.936 2.90245 127.597 2.88042C125.684 2.86241 124.299 4.3035 123.757 6.87657C123.126 9.87355 124.018 13.7929 125.586 14.9166C126.616 15.6545 128.098 15.7301 129.168 15.0994ZM51.3069 8.8393V0L52.3967 0.00506651L53.4865 0.0101371L54.0057 0.769367C55.7401 3.30514 60.2265 10.1065 60.8852 11.1987C61.3151 11.9115 61.7136 12.4946 61.7707 12.4946C61.8278 12.4946 61.8746 9.68335 61.8746 6.24732V0H62.9974H64.1202V8.8393V17.6786H63.0867H62.0532L59.5598 13.9993C58.1884 11.9757 56.3204 9.13074 55.4085 7.67722L53.7507 5.03446L53.7164 11.3565L53.682 17.6786H52.4945H51.3069V8.8393ZM65.4411 17.5789C65.441 17.5241 66.757 13.5464 68.3655 8.7396L71.29 0L72.4936 0.00170777L73.6972 0.00341147L76.1295 7.87732C77.4672 12.208 78.6961 16.1849 78.8602 16.7149L79.1587 17.6786H77.5372H75.9157L75.2822 15.3857C74.9338 14.1246 74.5898 13.0168 74.5177 12.9238C74.4181 12.7954 73.7842 12.7635 71.8729 12.7909L69.3591 12.8269L68.622 15.2511L67.8849 17.6752L66.6631 17.6769C65.991 17.6778 65.4411 17.6337 65.4411 17.5789ZM74.0502 10.6994C74.1082 10.641 72.4341 4.25729 72.2203 3.72181C72.17 3.59581 72.093 3.71811 72.0112 4.05411C71.94 4.34654 71.5026 5.92607 71.0392 7.56417C70.5758 9.20227 70.1966 10.593 70.1966 10.6546C70.1966 10.7723 73.9346 10.8158 74.0502 10.6994ZM82.2174 10.0356V2.39259H79.9717H77.7261V1.1963V0H83.6704H89.6148V1.1963V2.39259H87.3691H85.1235V10.0356V17.6786H83.6704H82.2174V10.0356ZM111.146 9.23806V0.79753H114.845H118.544V1.92737V3.0572H116.232H113.92V5.38333V7.70946H116.166H118.412V8.77284V9.83621H116.166H113.92V12.6276V15.4189H116.628H119.336V16.5488V17.6786H115.241H111.146V9.23806Z" fill="#707173"/>
<path d="M0 0.0634766V57.8761H40.0705V0.0634766H0ZM5.81223 5.91203C15.2943 5.91203 24.7763 5.91203 34.2583 5.91203C34.2583 21.2839 34.2583 36.6557 34.2583 52.0276C24.7763 52.0276 15.2943 52.0276 5.81223 52.0276C5.81223 36.6557 5.81223 21.2839 5.81223 5.91203Z" fill="#FFCC00"/>
</svg>
